X: 050130
T: Emo University
C: J.O'Sullivan
Z: B.Black
R: reel
M: 4/4
L: 1/8
K: G
d | Bdgd egdB | cAFA G3 A | BGdG eGdG |\
EAAG A3 d |
(3Bcd gd egdB | cAFA G3 A | BGAG EGDG |\
DEGA BG G :|
d | gd d2 a3 f | gedc BG G2 | ceae c3 b |\
ab (3gfe d2 de |
gd d2 a3 f | gedc BG G2 | ceae cbag | fgaf g3 :|
